X: 1
T: An Bhean Tinceare
M: 4/4
L: 1/8
R: reel
K: Dmix
A3B AGFA | DccB cedc | A2BG AGFA | DG (3GGG DGBG |
A2BG AGFG | Adde f3g | afge (3fga e^c | dcAF G2FG :|
|: Addc AGFG | Adde fde^c | Addc AGFA | DG (3GGG DGBG |
Addc AGFG | Adde f3g | afge (3fga e^c | dcAF G2FG :|
|: A3g fd=fe | dcAB cedc | A3g fd=fe | dcAF G2FG |
A3g fd=fe | dcAB cdeg | fdec (3ded cA | dBcA G2FG :|
